X:24
T: SCHWESTERLEIN SCHWESTERLEIN
N: F0079
O: Europa, Mitteleuropa, Deutschland
R: Tanz - Lied; Tod
M: 3/4
L: 1/16
K: A
 | E3A=c8 | E3A=c8 |
c2B2A4G4 | A8z4 |
=G2G2=c4e4 | e2d2=c2B2c4 |
=G2G2c4e4 | e2d2=c2B2c4 |
c3AA8 | G3BB8 |
=c2B2A4G4 | A8z4

@@@ Tune index: 5455
